X: 1523
T: Harry Cotter's See Saw Polka
B: australian traditional tunes wiki
M:2/4
L:1/16
R: Polka
Q: 1/4=100
K:G
V:1 
|:"G"g2d2 B2G2|"D"f2e2 A2cA|1"D"fze2 c2A2|ezd2"G"B4:|2"D"f2e2 A2F2|A2G2"G"G4||
|:"G"D2GD "C"E2FE|"G"D2B2 B2GD|1"C"E2c2 cAFE|"G"D2B2B4:|2"C"E2c2 "D"A2F2|"G"G4-G4||
% abcbook-tune_id 6342d53aa5d53de9ff8d5703


% abcbook-boost 0
% abcbook-tablature 
% abcbook-transpose 
% abcbook-lastupdated 1665324369178
% abcbook-soundfonts 
% abcbook-repeats 1
% NFF Book 2013

